X:1
T:Down by the Sally Gardens
C:Trad Irish air; W.B. Yeats poem (1889), melody trad pre-1900
S:Public domain — melody traditional; Yeats text PD (his work pre-1923 in US)
M:4/4
L:1/8
Q:1/4=72
K:D
H:D major for D Irish flute. Range D5-D6. Gentle 2/2 feel.
d2 f2 a2 f2 | g4 f4 | e2 d2 e2 f2 | d8 |
d2 f2 a2 b2 | c'4 a4 | b2 a2 g2 f2 | a8 |
d'2 a2 f2 d2 | e4 d4 | f2 g2 a2 b2 | c'8 |
d'2 a2 f2 d2 | e4 f4 | g2 f2 e2 d2 | d8 |]
